X:32
T:Ida Red
B:Appalachian Fiddle, p.16
Z:abc-transcription Josh Larios <hades@elsewhere.org>, 2014.01.20
M:2/4
L:1/8
K:G
|:"G"BB A>A | GGE2 | GG A/G/E |1 "D"DG "G"G>A :|2 "D"DG"G"G2 |
|:"G"B2d2 | B2 G2 | AA B/A/G |1 "D"DG "G"G>A :|2 "D"DG"G"G2 |]

